assets/img/pdf_icon.svg

<svg enable-background="new 0 0 56 56" viewBox="0 0 56 56" xmlns="http://www.w3.org/2000/svg"><path d="m36.985 0h-29.022c-.808 0-1.463.655-1.463 1.926v53.074c0 .345.655 1 1.463 1h40.074c.808 0 1.463-.655 1.463-1v-42.022c0-.696-.093-.92-.257-1.085l-11.636-11.636c-.165-.164-.389-.257-.622-.257z" fill="#e9e9e0"/><path d="m37.5.151v11.849h11.849z" fill="#d9d7ca"/><path d="m19.514 33.324c-.348 0-.682-.113-.967-.326-1.041-.781-1.181-1.65-1.115-2.242.182-1.628 2.195-3.332 5.985-5.068 1.504-3.296 2.935-7.357 3.788-10.75-.998-2.172-1.968-4.99-1.261-6.643.248-.579.557-1.023 1.134-1.215.228-.076.804-.172 1.016-.172.504 0 .947.649 1.261 1.049.295.376.964 1.173-.373 6.802 1.348 2.784 3.258 5.62 5.088 7.562 1.311-.237 2.439-.358 3.358-.358 1.566 0 2.515.365 2.902 1.117.32.622.189 1.349-.39 2.16-.557.779-1.325 1.191-2.22 1.191-1.216 0-2.632-.768-4.211-2.285-2.837.593-6.15 1.651-8.828 2.822-.836 1.774-1.637 3.203-2.383 4.251-1.025 1.435-1.909 2.105-2.784 2.105zm2.662-5.126c-2.137 1.201-3.008 2.188-3.071 2.744-.01.092-.037.334.431.692.149-.047 1.019-.444 2.64-3.436zm13.637-4.442c.815.627 1.014.944 1.547.944.234 0 .901-.01 1.21-.441.149-.209.207-.343.23-.415-.123-.065-.286-.197-1.175-.197-.505.001-1.14.023-1.812.109zm-7.47-6.582c-.715 2.474-1.659 5.145-2.674 7.564 2.09-.811 4.362-1.519 6.496-2.02-1.35-1.568-2.699-3.526-3.822-5.544zm-.607-8.462c-.098.033-1.33 1.757.096 3.216.949-2.115-.053-3.23-.096-3.216z" fill="#cc4b4c"/><path d="m48.037 56h-40.074c-.808 0-1.463-.655-1.463-1.463v-15.537h43v15.537c0 .808-.655 1.463-1.463 1.463z" fill="#cc4b4c"/><g fill="#fff"><path d="m17.385 53h-1.641v-10.076h2.898c.428 0 .852.068 1.271.205s.795.342 1.128.615.602.604.807.991.308.822.308 1.306c0 .511-.087.973-.26 1.388s-.415.764-.725 1.046-.684.501-1.121.656-.921.232-1.449.232h-1.217v3.637zm0-8.832v3.992h1.504c.2 0 .398-.034.595-.103.196-.068.376-.18.54-.335s.296-.371.396-.649.15-.622.15-1.032c0-.164-.023-.354-.068-.567-.046-.214-.139-.419-.28-.615-.142-.196-.34-.36-.595-.492s-.593-.198-1.012-.198h-1.23z"/><path d="m32.219 47.682c0 .829-.089 1.538-.267 2.126s-.403 1.08-.677 1.477-.581.709-.923.937-.672.398-.991.513c-.319.114-.611.187-.875.219-.264.03-.46.046-.588.046h-3.814v-10.076h3.035c.848 0 1.593.135 2.235.403s1.176.627 1.6 1.073.74.955.95 1.524c.21.57.315 1.156.315 1.758zm-4.867 4.115c1.112 0 1.914-.355 2.406-1.066s.738-1.741.738-3.09c0-.419-.05-.834-.15-1.244-.101-.41-.294-.781-.581-1.114s-.677-.602-1.169-.807-1.13-.308-1.914-.308h-.957v7.629z"/><path d="m36.266 44.168v3.172h4.211v1.121h-4.211v4.539h-1.668v-10.076h6.302v1.244z"/></g></svg>

<?xml version="1.0" encoding="iso-8859-1"?>
<!-- Generator: Adobe Illustrator 18.0.0, SVG Export Plug-In . SVG Version: 6.00 Build 0)  -->
<!DOCTYPE svg PUBLIC "-//W3C//DTD SVG 1.1//EN" "http://www.w3.org/Graphics/SVG/1.1/DTD/svg11.dtd">
<svg version="1.1" id="Capa_1" xmlns="http://www.w3.org/2000/svg" xmlns:xlink="http://www.w3.org/1999/xlink" x="0px" y="0px"
	 viewBox="0 0 56 56" style="enable-background:new 0 0 56 56;" xml:space="preserve">
<g>
	<path style="fill:#E9E9E0;" d="M36.985,0H7.963C7.155,0,6.5,0.655,6.5,1.926V55c0,0.345,0.655,1,1.463,1h40.074
		c0.808,0,1.463-0.655,1.463-1V12.978c0-0.696-0.093-0.92-0.257-1.085L37.607,0.257C37.442,0.093,37.218,0,36.985,0z"/>
	<polygon style="fill:#D9D7CA;" points="37.5,0.151 37.5,12 49.349,12 	"/>
	<path style="fill:#CC4B4C;" d="M19.514,33.324L19.514,33.324c-0.348,0-0.682-0.113-0.967-0.326
		c-1.041-0.781-1.181-1.65-1.115-2.242c0.182-1.628,2.195-3.332,5.985-5.068c1.504-3.296,2.935-7.357,3.788-10.75
		c-0.998-2.172-1.968-4.99-1.261-6.643c0.248-0.579,0.557-1.023,1.134-1.215c0.228-0.076,0.804-0.172,1.016-0.172
		c0.504,0,0.947,0.649,1.261,1.049c0.295,0.376,0.964,1.173-0.373,6.802c1.348,2.784,3.258,5.62,5.088,7.562
		c1.311-0.237,2.439-0.358,3.358-0.358c1.566,0,2.515,0.365,2.902,1.117c0.32,0.622,0.189,1.349-0.39,2.16
		c-0.557,0.779-1.325,1.191-2.22,1.191c-1.216,0-2.632-0.768-4.211-2.285c-2.837,0.593-6.15,1.651-8.828,2.822
		c-0.836,1.774-1.637,3.203-2.383,4.251C21.273,32.654,20.389,33.324,19.514,33.324z M22.176,28.198
		c-2.137,1.201-3.008,2.188-3.071,2.744c-0.01,0.092-0.037,0.334,0.431,0.692C19.685,31.587,20.555,31.19,22.176,28.198z
		 M35.813,23.756c0.815,0.627,1.014,0.944,1.547,0.944c0.234,0,0.901-0.01,1.21-0.441c0.149-0.209,0.207-0.343,0.23-0.415
		c-0.123-0.065-0.286-0.197-1.175-0.197C37.12,23.648,36.485,23.67,35.813,23.756z M28.343,17.174
		c-0.715,2.474-1.659,5.145-2.674,7.564c2.09-0.811,4.362-1.519,6.496-2.02C30.815,21.15,29.466,19.192,28.343,17.174z
		 M27.736,8.712c-0.098,0.033-1.33,1.757,0.096,3.216C28.781,9.813,27.779,8.698,27.736,8.712z"/>
	<path style="fill:#CC4B4C;" d="M48.037,56H7.963C7.155,56,6.5,55.345,6.5,54.537V39h43v15.537C49.5,55.345,48.845,56,48.037,56z"/>
	<g>
		<path style="fill:#FFFFFF;" d="M17.385,53h-1.641V42.924h2.898c0.428,0,0.852,0.068,1.271,0.205
			c0.419,0.137,0.795,0.342,1.128,0.615c0.333,0.273,0.602,0.604,0.807,0.991s0.308,0.822,0.308,1.306
			c0,0.511-0.087,0.973-0.26,1.388c-0.173,0.415-0.415,0.764-0.725,1.046c-0.31,0.282-0.684,0.501-1.121,0.656
			s-0.921,0.232-1.449,0.232h-1.217V53z M17.385,44.168v3.992h1.504c0.2,0,0.398-0.034,0.595-0.103
			c0.196-0.068,0.376-0.18,0.54-0.335c0.164-0.155,0.296-0.371,0.396-0.649c0.1-0.278,0.15-0.622,0.15-1.032
			c0-0.164-0.023-0.354-0.068-0.567c-0.046-0.214-0.139-0.419-0.28-0.615c-0.142-0.196-0.34-0.36-0.595-0.492
			c-0.255-0.132-0.593-0.198-1.012-0.198H17.385z"/>
		<path style="fill:#FFFFFF;" d="M32.219,47.682c0,0.829-0.089,1.538-0.267,2.126s-0.403,1.08-0.677,1.477s-0.581,0.709-0.923,0.937
			s-0.672,0.398-0.991,0.513c-0.319,0.114-0.611,0.187-0.875,0.219C28.222,52.984,28.026,53,27.898,53h-3.814V42.924h3.035
			c0.848,0,1.593,0.135,2.235,0.403s1.176,0.627,1.6,1.073s0.74,0.955,0.95,1.524C32.114,46.494,32.219,47.08,32.219,47.682z
			 M27.352,51.797c1.112,0,1.914-0.355,2.406-1.066s0.738-1.741,0.738-3.09c0-0.419-0.05-0.834-0.15-1.244
			c-0.101-0.41-0.294-0.781-0.581-1.114s-0.677-0.602-1.169-0.807s-1.13-0.308-1.914-0.308h-0.957v7.629H27.352z"/>
		<path style="fill:#FFFFFF;" d="M36.266,44.168v3.172h4.211v1.121h-4.211V53h-1.668V42.924H40.9v1.244H36.266z"/>
	</g>
</g>
<g>
</g>
<g>
</g>
<g>
</g>
<g>
</g>
<g>
</g>
<g>
</g>
<g>
</g>
<g>
</g>
<g>
</g>
<g>
</g>
<g>
</g>
<g>
</g>
<g>
</g>
<g>
</g>
<g>
</g>
</svg>
